ashes/src/images/icons/carts.svg

<?xml version="1.0" encoding="UTF-8" standalone="no"?>
<svg width="18px" height="16px" viewBox="0 0 18 16" version="1.1" xmlns="http://www.w3.org/2000/svg" xmlns:xlink="http://www.w3.org/1999/xlink">
    <!-- Generator: Sketch 42 (36781) - http://www.bohemiancoding.com/sketch -->
    <title>Icon_Carts</title>
    <desc>Created with Sketch.</desc>
    <defs></defs>
    <g id="Page-1" stroke="none" stroke-width="1" fill="none" fill-rule="evenodd">
        <g id="Artboard-Copy" transform="translate(-66.000000, -76.000000)" fill-rule="nonzero" fill="#FFFFFF">
            <g id="Icon_Carts" transform="translate(66.000000, 76.000000)">
                <g id="Capa_1">
                    <g id="Group">
                        <path d="M17.8466456,2.87491803 C17.7486959,2.74753376 17.5974947,2.67292001 17.4373262,2.67292001 L4.27695376,2.67292001 L3.70215447,0.450109577 C3.64290178,0.220859498 3.43706942,0.0608837173 3.20143826,0.0608837173 L0.517340062,0.0608837173 C0.231630391,0.0608837173 0,0.293739665 0,0.580961029 C0,0.868182392 0.231630391,1.10103834 0.517340062,1.10103834 L2.80136195,1.10103834 L3.37616125,3.32384877 C3.37616125,3.32391811 3.37616125,3.32391811 3.37623023,3.32398746 L5.40289268,11.1576693 C5.46214536,11.38685 5.66797772,11.5468258 5.9035399,11.5468258 L15.4103188,11.5468258 C15.645881,11.5468258 15.8517134,11.38685 15.9109661,11.1576693 L17.9379044,3.32384877 C17.9783259,3.16810295 17.9445954,3.00223296 17.8466456,2.87491803 Z M8.13099927,10.5067405 L6.30361621,10.5067405 L5.89719386,8.93596836 L8.13099927,8.93596836 L8.13099927,10.5067405 L8.13099927,10.5067405 Z M8.13099927,7.8957444 L5.62810805,7.8957444 L5.22147876,6.32393208 L8.13099927,6.32393208 L8.13099927,7.8957444 L8.13099927,7.8957444 Z M8.13099927,5.28377745 L4.95232397,5.28377745 L4.5459706,3.71307463 L8.13099927,3.71307463 L8.13099927,5.28377745 Z M12.1484553,10.5067405 L9.1656794,10.5067405 L9.1656794,8.93596836 L12.1484553,8.93596836 L12.1484553,10.5067405 Z M12.1484553,7.8957444 L9.1656794,7.8957444 L9.1656794,6.32393208 L12.1484553,6.32393208 L12.1484553,7.8957444 Z M12.1484553,5.28377745 L9.1656794,5.28377745 L9.1656794,3.71307463 L12.1484553,3.71307463 L12.1484553,5.28377745 Z M15.0103805,10.5067405 L13.1831354,10.5067405 L13.1831354,8.93596836 L15.4168028,8.93596836 L15.0103805,10.5067405 Z M15.6859576,7.8957444 L13.1831354,7.8957444 L13.1831354,6.32393208 L16.0926559,6.32393208 L15.6859576,7.8957444 Z M16.3618107,5.28377745 L13.1832044,5.28377745 L13.1832044,3.71307463 L16.768302,3.71307463 L16.3618107,5.28377745 Z" id="Shape"></path>
                        <path d="M6.73655022,12.8750995 C7.48108778,12.8750995 8.08678234,13.4840483 8.08678234,14.2324757 C8.08678234,14.9810517 7.48103849,15.5900996 6.73655022,15.5900996 C5.99201266,15.5900996 5.38626882,14.9810517 5.38626882,14.2324757 C5.38626882,13.4840483 5.99201266,12.8750995 6.73655022,12.8750995 Z" id="Shape"></path>
                        <path d="M13.4986085,12.8750995 C14.2431461,12.8750995 14.8488899,13.4840483 14.8488899,14.2324757 C14.8488899,14.9810517 14.2431953,15.5900996 13.4986085,15.5900996 C12.7541695,15.5900996 12.1485242,14.9810517 12.1485242,14.2324757 C12.1485242,13.4840483 12.7541695,12.8750995 13.4986085,12.8750995 Z" id="Shape"></path>
                    </g>
                </g>
            </g>
        </g>
    </g>
</svg>

<svg xmlns="http://www.w3.org/2000/svg" width="18" height="16"><path fill="#FFF" d="M17.85 2.87c-.1-.12-.25-.2-.4-.2H4.27L3.7.45c-.06-.23-.26-.4-.5-.4H.52C.22.05 0 .3 0 .6c0 .3.23.52.52.52H2.8l.58 2.22 2.02 7.84c.06.23.27.4.5.4h9.5c.25 0 .45-.17.5-.4l2.04-7.84c.04-.15 0-.32-.1-.45zM8.13 10.5H6.3l-.4-1.56h2.23v1.57zm0-2.6h-2.5l-.4-1.58h2.9V7.9zm0-2.62H4.95l-.4-1.57h3.58v1.6zm4.02 5.23H9.17V9h2.98v1.57zm0-2.6H9.17V6.37h2.98V7.9zm0-2.6H9.17V3.7h2.98v1.6zM15 10.5h-1.8V8.95h2.24l-.4 1.57zm.7-2.6h-2.52V6.32h2.9l-.4 1.58zm.66-2.62h-3.18V3.7h3.6l-.42 1.58zm-9.62 7.6c.74 0 1.35.6 1.35 1.35 0 .75-.67 1.36-1.4 1.36-.76 0-1.36-.67-1.36-1.4 0-.77.6-1.37 1.34-1.37zm6.76 0c.74 0 1.35.6 1.35 1.35 0 .75-.6 1.36-1.35 1.36-.75 0-1.35-.67-1.35-1.4 0-.77.6-1.37 1.35-1.37z"/></svg>
